components/Common/Svg/svgs/behanceBlackIcon.svg

<svg
  width="35"
  height="22"
  viewBox="0 0 35 22"
  fill="none"
  xmlns="http://www.w3.org/2000/svg"
>
  <path
    d="M32.0833 2.91667H21.875V0H32.0833V2.91667ZM34.5625 17.5C33.9792 19.3958 31.6458 21.875 27.125 21.875C22.6042 21.875 18.9583 19.3958 18.9583 13.5625C18.9583 7.875 22.3125 4.95833 26.9792 4.95833C31.5 4.95833 34.2708 7.58333 34.8542 11.375C35 12.1042 35 13.125 35 14.5833H23.3333C23.4792 19.25 28.4375 19.3958 30.0417 17.5H34.5625ZM23.3333 11.6667H30.625C30.4792 9.47917 29.0208 8.45833 26.9792 8.45833C24.9375 8.45833 23.7708 9.47917 23.3333 11.6667ZM9.47917 21.875H0V0H10.2083C18.2292 0.145833 18.375 7.875 14.1458 10.0625C19.1042 11.9583 19.25 21.875 9.47917 21.875ZM4.375 8.75H9.625C13.2708 8.75 13.8542 4.375 9.1875 4.375H4.375V8.75ZM9.33333 13.125H4.375V17.5H9.1875C13.7083 17.5 13.4167 13.125 9.33333 13.125Z"
    fill="#161616"
  ></path>
</svg>

<svg width="35" height="22" viewBox="0 0 35 22" fill="none" xmlns="http://www.w3.org/2000/svg"><path d="M32.083 2.917H21.875V0h10.208v2.917Zm2.48 14.583c-.584 1.896-2.917 4.375-7.438 4.375-4.52 0-8.167-2.48-8.167-8.313 0-5.687 3.355-8.604 8.021-8.604 4.521 0 7.292 2.625 7.875 6.417.146.73.146 1.75.146 3.208H23.333c.146 4.667 5.105 4.813 6.709 2.917h4.52Zm-11.23-5.833h7.292c-.146-2.188-1.604-3.209-3.646-3.209-2.041 0-3.208 1.021-3.646 3.209ZM9.48 21.875H0V0h10.208c8.021.146 8.167 7.875 3.938 10.063 4.958 1.895 5.104 11.812-4.667 11.812ZM4.375 8.75h5.25c3.646 0 4.23-4.375-.438-4.375H4.375V8.75Zm4.958 4.375H4.375V17.5h4.813c4.52 0 4.229-4.375.145-4.375Z" fill="#161616"/></svg>
